X:1
T:James Gibb editions
T:O salutaris hostia - Franz
T:#
%%score [ 1 2 3 ]
L:1/8
Q:1/4=54
M:3/4
K:G
V:1 treble nm="Alto" snm="A"
V:2 treble-8 nm="Tenor" snm="T"
V:3 bass nm="Bass" snm="B"
V:1
"^devoto""^O salutaris hostia""^Vittorio Franz\n (1859-1931)" z2 | z2 z2!pp! C2 | D4 D2 | E4 E2 | %4
w: |O|sa- lu-|ta- ris|
 D3 D D2 | z2 E2 FF | D2"^," E2 F2 |[M:3/4] D2!<(! DD D!<)!D | E2"^," E2 (D2- | %9
w: ho- sti- a,|quae coe- li|pan- dis, quae|coe- li, quae coe- li|pan- dis, o\-|
!>(! D2 B,2) ^C2!>)! | D4 z2 | z6 | z2 z2!p! (D2 | G2 F2) E2 | (FE) D2 D2 | %15
w: * * sti-|um:||bel\-|* * la|pre\- * munt ho-|
 ^C"^cresc."C"^," D2 E2 | B,^C D2 (D2- |"^rit."[Q:1/4=53] D[Q:1/4=52]E)[Q:1/4=51] D2[Q:1/4=50] E2 | %18
w: sti- li- a, ho-|sti- li- a, ho\-|* * sti- li-|
[Q:1/4=50] F4 z2 | z2 z2!mf! ^C2 |[Q:1/4=50][Q:1/4=50][Q:1/4=50] E2 D2 (D=C) | %21
w: a,|da|ro- bur, da *|
"^cresc." (B,D) (EF) GF | E>E"^," E2"^rit."!p![Q:1/4=49] C[Q:1/4=48]A, | %23
w: ro\- * bur, * fer au-|xi- li- um, fer au-|
[Q:1/4=47] (D2[Q:1/4=45] A,3)[Q:1/4=44] A, |[Q:1/4=44] !fermata!B,6 |] %25
w: xi\- * li-|um.|
V:2
 z2 | z2 z2!pp! c2 | (c2 B2) A2 | G4 c2 | c2 (BA) B2 | z2 G2 AA | B2"^," c2 (Ac) | %7
w: |O|sa\- * lu-|ta- ris|ho- sti\- * a,|quae coe- li|pan- dis, quae *|
[M:3/4][K:treble-8] c2!<(! BB B!<)!B | B2 A2 (AG |!>(! E3 F) (EG)!>)! | F4 z2 | z2 z2!p! (A2 | %12
w: coe- li, quae coe- li|pan- dis, o\- *|* * sti\- *|um:|bel\-|
 B2 A2) A2 | (B2 d2) ^c2 | (dA) A2 B2 | A"^cresc."G"^," F2 B2 | BA (AG) (FA) | B4 B2 | ^A4 z2 | %19
w: * * la|pre\- * munt|pre\- * munt ho-|sti- li- a, ho-|sti- li- a, * ho\- *|sti- li-|a,|
 z2 z2!mf! (^cB) | =A2 (AG) (FA) |"^cresc." B2 (BA) BB | c>G"^," c2!p! EA | (G3 F) (EF) | %24
w: da *|ro- bur, * da *|ro- bur, * fer au-|xi- li- um, fer au-|xi\- * li\- *|
 !fermata!G6 |] %25
w: um.|
V:3
!pp! G,2 |!<(! G,4 A,2!<)! | G,4 F,2 | (E,D,C,D,) (E,F,) | G,4 G,2 | E,4 D,2 | G,2"^," C,2 D,2 | %7
w: O|sa- lu-|ta- ris|ho\- * * * sti\- *|a, quae|coe- li|pan- dis, quae|
[M:3/4] G,2!<(! G,G, B,,!<)!B,, | C,2 (C,2 B,,2) |!>(! A,,4 A,,2!>)! | D,4!p! (D,2 | F,2 E,2) D,2 | %12
w: coe- li, quae coe- li|pan- dis, *|o- sti-|um: bel\-|* * la|
 G,2 (G,2 F,2) | (E,2 D,2) A,2 | (D,2 F,2 G,2) | A,"^cresc."A,"^," D,2 G,2 | G,G, (F,E,) (D,F,) | %17
w: pre- munt, *|pre\- * munt|ho\- * *|sti- li- a, ho-|sti- li- a, * ho\- *|
 G,4 G,2 |"^," F,4!mf! F,2 | B,2 A,2 (A,G,) | F,2 (F,E,) (D,F,) |"^cresc." G,2 (G,F,) E,D, | %22
w: sti- li-|a, da|ro- bur, da *|ro- bur, * da *|ro- bur, * fer au-|
 C,>C,"^," C,2!p! A,,C, | (B,,C, D,2) D,2 | !fermata!G,,6 |] %25
w: xi- li- um, fer au-|xi\- * * li-|um.|

